X:1
T:Title
%%score { ( 1 3 ) | ( 2 4 ) }
L:1/8
M:4/4
K:G
V:1 treble nm="Grand Piano"
V:3 treble 
V:2 treble 
V:4 treble 
V:1
 z4 z2[Q:1/4=100] B2 | B2 G2 G2 E2 | [CE]2 [B,D]2 [B,D]2 d2 | d2 B2 B2 G2 | %4
[M:3/4] [GB]2 [FA]2 [FA]2 |[M:1/4] D2 |[M:4/4] [DG]2 [DG]2 [DFA]2 [DFA]2 | %7
 [DGB]2 [DGB]2 [CGc]2 [G^c]2 | [Gd]2 [DGB]2 [B,G]2 [CGA]2 |[M:7/8] [DGB]2 [CFA]2 G3 |[M:1/4] d2 | %11
[M:4/4] d4 G2 z2 | [DB]2- [DGB]2 D2 D2 | F2 G2 c2 B2 | A2 G2 [DFA]4 | [Dd]2- [DGd]2 F2 F2 | %16
 [DB]2- [DGB]2 E2 ^D2 | [DG]4 F4 |[M:3/4] [B,DG]6 |] %19
V:2
 z4 z2 [G,DG]2 | [G,DG]2 [G,B,D]2 [G,B,D]2 [G,C]2 | [G,,G,]2 [G,,G,]2 [G,,G,]2[K:treble] [G,B,G]2 | %3
 [G,B,G]2 [G,DG]2 [G,DG]2 [G,B,D]2 |[M:3/4][K:bass] [D,D]2 [D,D]2 [D,D]2 |[M:1/4] D,2 | %6
[M:4/4] B,,2 B,,2 D,2 D,2 | G,2 G,2 E,2 [^D,_B,]2 | [D,B,]2 D,2 D,2 D,2 |[M:7/8] D,2 D,2 [G,B,]3 | %10
[M:1/4][K:treble] [G,B,G]2 |[M:4/4] [G,G]2 z2 z4 | G,2 G,2 G,2 G,2 | %13
 [CD]2[K:treble] [B,D]2 [A,DF]2 [A,DG]2 | [F,D]2 [E,^CE]2 D,2 C,2 | B,,2 B,,2 A,,2 A,,2 | %16
 G,,2 A,,B,, C,2 C,2 | z2 A,2 z2 C2 |[M:3/4] G,,6 |] %19
V:3
 x8 | x8 | x8 | x8 |[M:3/4] x6 |[M:1/4] x2 |[M:4/4] x8 | x8 | x8 |[M:7/8] x7 |[M:1/4] x2 | %11
[M:4/4] z2 G2 [DB]2- [DGB]2 | G2 z2 [B,G]4 | x8 | x8 | G2 z2 [Dc]4 | G2 z2 [CA]4 | B,2 z2 D2 z2 | %18
[M:3/4] x6 |] %19
V:4
 x8 | x8 | x6[K:treble] x2 | x8 |[M:3/4][K:bass] x6 |[M:1/4] x2 |[M:4/4] x8 | x8 | x8 |[M:7/8] x7 | %10
[M:1/4][K:treble] x2 |[M:4/4] B,2- [G,B,]2 G,2 G,2 | x8 | x2[K:treble] x6 | x8 | x8 | x8 | %17
 D,4 D,4 |[M:3/4] x6 |] %19

